X: 111
T:Cujes Mala (Usest)
O:Serbia
S:from record Pecurka goes underground (P.U.1 Oct 1975)
L:1/8
M:2/4
Q:1/4=120
K:Gm
|: "F".=B c2 .c| .=B c2 .c     | .=BcBc     | "C"B2 "F"A2 |\
   c2 "C" de   | d2 c2         |"Gm"B4      | "F"A4       |
   .=B c2 .c   | .=B c2 .c     | .=BcBc     | "C"B2 "F"A2 |\
   F2 "C"GA    | "Gm"BA "C"GF  |
   G4          | "Gm"d2 "C"c2  | "F"F2 "C"GA| "Gm"BA "C"GF|\
   G4          | G4            :|
K:Dm
   "C".^f g2 .g| .^f g2 .g     | .^fg"C"fg  | "F"f2 "C"e2 |\
   g2 "F"ab    | a2 "C"g2      |"F"f4       | "C"e4       |
   .^f g2 .g   | .^f g2 .g     | .^fgfg     | "F"f2 "C"e2 |\
   c2 de       | "F"fe "C"dc   |"G"d4       |
   "F"a2 "C"g2 | c2 "Gm"de     | "F"fe "D"dc| "Dm"d4      | "Dm"d4  |



